X: 21492
M: 2/4
L: 1/16
K: C
V: 1 name="5"
e2fe d2ed | c4 G2c2 | d2d2 d2d2 | g4 ^f2=f2 |\
e2fe d2ed | c4 G2c2 | d2d2 dcde | c4 z2 H|]
ef |\
g2g2 b4 | g2g2 c'3g | f2e2 f2d2 | edcB cdef |\
g2g2 c'3g | g2g2 c'3g | f2e2 f2d2 cEFG ABc"^D.C."d |]
c2 |:\
d2d2 dced | cBcd cege :|\
d2d2 dced | cBcd cdef | gefg agab | c'4 "^D.C."z2 |]


